X:1
T:Behold, I bring you glad tidings - Greene
T:#
%%score [ 1 2 ] { ( 3 4 ) | 5 }
L:1/8
Q:1/4=80
M:3/4
K:D
V:1 treble nm="Treble I" snm="Treble I"
V:2 treble nm="Treble II" snm="Treble II"
V:3 treble nm="Keyboard" snm="Keyboard"
V:4 treble 
V:5 bass 
V:1
"^Behold, I bring you glad tidings""^Maurice Greene\n(1696-1755)""^Luke 2:10-11,14" z6 | z6 | z6 | %3
w: |||
 z6 | z6 | z6 | z6 | z6 | z2 z2 D2 | A6- |[M:3/4] A6 | z2 z2 A2 | d6- | d4 A2 | B3 c (de) | %15
w: |||||Be-|hold,||be-|hold,|* I|bring you glad *|
 (cB) A2 z2 | z6 | z2 z2 E2 | B6- | B6 | z2 z2 B2 | e6- | e4 B2 | c3 ^d (ef) | (^dc) B2 z2 | %25
w: ti\- * dings,||be-|hold,||be-|hold,|* I|bring you glad *|ti\- * dings,|
 ^G2 GE (FG) | A4 z2 | B2 BE (Bc) | d4 z2 | c2 cA (cd) | (e3 d) cB | cA{A} ^G4 | A2 AA d2 | %33
w: ti- dings of great *|joy,|ti- dings of great *|joy,|ti- dings of great *|joy, * which shall|be to *|peo- ple, to all|
 d2 E2 B2 | cd({c} B3 A) | A2 A4 | z6 | z2 z A Bc | d3 A dc | B3 d cB | (^A^G) F2 z2 | %41
w: peo- ple, to|all, to * *|peo- ple:||For un- to|you, to you this|day is born a|Sa\- * viour,|
 dB{B} ^A3 B | B2 G4- | G2 F4 | (F2 E3) F |[Q:1/4=40] !fermata!F4[Q:1/4=80] F2 | B6- | B6 | %48
w: which is * the|Lord! which|* is|Christ * the|Lord! Be-|hold,||
 z2 z2 E2 | A6- | A4 A2 | B3 c (de) | (cB) A (dcB) | (AG) F (BAG) | (FE) DE (F^G) | A3 A (Bc) | %56
w: be-|hold,|* I|bring you glad *|ti\- * dings, glad * *|ti\- * dings, glad * *|ti\- * dings of great *|joy, of great *|
 d2 (AB) =c2 | B3 A (GF) | F2 EA d2 | d2 cE F2 | (FE) E2 z2 | z2 z2 TA2 | AF G3 e |{d} c3 A cA | %64
w: joy, which * shall|be to all *|peo- ple, to all|peo- ple, to all|peo\- * ple.|For|un- to you this|* is born a|
 d2 D2 D2 | EF G3 A | (FE) D2 z A | (AG) G2 z G | (GF) F2[Q:1/4=78] z2 | %69
w: Sa- viour, this|day is born a|Sa\- * viour, a|Sa\- * viour, a|Sa\- * viour,|
[Q:1/4=76] B[Q:1/4=74]G[Q:1/4=71]{F} TE3[Q:1/4=68] D |[Q:1/4=68] D6 || %71
w: which is * the|Lord.|
[K:G][Q:1/4=60][Q:1/4=60][Q:1/4=60] z6 | z6 | z6 | (B3!mf! cBc | d>c) B2 z2 | (B3 cBc | %77
w: |||Glo\- * * *|* * ry,|Glo\- * * *|
 d>c) B2 z2 |!f! (c3 dcd | e>d) c2 A2 | B^c{d} Tc4 | !fermata!d6 ||[K:C][M:4/4] z8 | %83
w: * * ry,|Glo\- * * *|* * ry, to|God * *|high!||
[M:4/4] A3 d{c} _B4 | A4 G3 G | (FE)FG A2 z2 | z4 AG (GA) | _B2 z2 (BA) (AB) | c2 z2 (c=B) (e2- | %89
w: And on *|peace, peace, good|will * to- wards men.|And on earth *|peace, peace * on *|earth, peace, * peace|
 e2 d4) c2 | B2 BA A2 z ^c | (d^c)ed (dc) z A | (_BA)cB (BA) A2 | _B4 G2 z2 | %94
w: * * good|will to- wards men, good|will * to- wards men, * good|will * to- wards men. * On|earth peace,|
[Q:1/4=58] A2[Q:1/4=56] A2[Q:1/4=53] A2[Q:1/4=51] G[Q:1/4=50]G |[Q:1/4=50] !fermata!A8 || %96
w: peace, good will to- wards|men.|
[K:D][M:3/4][Q:1/4=120][Q:1/4=120][Q:1/4=120] z6 | z6 | z6 | z6 | z6 | z6 | z2 F2 G2 | (A3 G) F2 | %104
w: ||||||Hal- le-|lu\- * jah,|
 z2 B3 B | B2 A2 z2 | z2 A2 B2 | G4 F2 | (B3/2 A/{A} G2) F2 | F2 E2 z2 | z2 c2 d2 | (e3 d) c2 | %112
w: Hal- le-|lu- jah,|Hal- le-|lu- jah,|Hal\- * * le-|lu- jah,|Hal- le-|lu\- * jah,|
 z2 d3 d |{e} d2 c2 z2 | z2 F2 G2 | (A3 G) F2 | z2 B3 B |{c} B2 A2 z2 | z2 d3 =c | B4 A2 | %120
w: Hal- le-|* jah,|Hal- le-|lu\- * jah,|Hal- le-|* jah,|Hal- le-|lu- jah,|
 (B2 c2) d2 |{e} d2 c2 z2 | z2 A2 B2 | G4 F2 | GF (F2 E2) | D4 z2 | z2 A2 B2 | c4 d2 | %128
w: Hal\- * le-|* jah,|Hal- le-|lu- jah,|Hal- le- lu\- *|jah,|Hal- le-|lu- jah,|
 ed[Q:1/4=90]{!fermata!d} !fermata!Tc3 d |[Q:1/4=120] d6 |[M:4/4] A8 | B8 | B8 | A8 |] %134
w: Hal- le * *|jah,|A-|men,|A-|men.|
V:2
[K:C] z6 z2 | z6 | z6 | z6 | z6 | z6 | z6 | z6 | z6 | z6 |[M:3/4] z6 | z6 | z6 | z6 | z6 | z6 | %16
w: ||||||||||||||||
 z6 | z6 | z6 |[M:3/4] z6 | z6 | z6 | z6 | z6 | z6 | z6 | z6 |[M:3/4] z6 | z6 | z6 | z6 | z6 | z6 | %33
w: |||||||||||||||||
[M:3/4] z6 | z6 | z6 | z6 | z6 | z6 | z6 |[M:3/4] z6 | z6 | z6 | z6 | z6 | z6 | z6 |[M:3/4] z6 | %48
w: |||||||||||||||
 z6 | z6 | z6 | z6 | z6 | z6 |[M:3/4] z6 | z6 | z6 | z6 | z6 | z6 |[M:3/4] z6 | z6 | z6 | z6 | z6 | %65
w: |||||||||||||||||
 z6 |[M:3/4] z6 | z6 | z6 | z6 | z6 ||[K:G][M:3/4][K:treble] z6 | z6 | z6 |!mf! (G3 AGA | %75
w: |||||||||Glo\- * * *|
 B>A) G2 z2 | (G3 AGA | B>A) G2 z2 |!f! (E3 =FEF | G>=F) E2 ^F2 | G2 G4 | !fermata!F6 || %82
w: * * ry,|Glo\- * * *|* * ry,|Glo\- * * *|* * ry, to|God on|high!|
[K:C][M:4/4] A3 d{c} _B4 |[M:4/4] A2 z2 D3 G | (G2 F2) (F2 E)E | D2 DE ^C2 z2 | z4 FE (EF) | %87
w: And on *|peace, and on|earth * peace, * good|will to- wards men.|And on earth *|
 G2 z2 (GF) (FG) | A2 z2 (A^G)cB | A2 (BA) ^G2 A2 | A2 ^GA A2 z E | (FE)GF (FE) z ^F | %92
w: peace, peace * on *|earth, peace, * peace on|earth, on * earth, good|will to- wards men, good|will * to- wards men, * good|
 (G^F)AG (GF) F2 | G4 E2 z2 | =F2 F2 D2 ED | !fermata!^C8 ||[K:D][M:3/4] z6 | z6 | z6 | z6 | z6 | %101
w: will * to- wards men. * On|earth peace,|peace, good will to- wards|men.||||||
 z6 | z2 D2 E2 | (F3 E) D2 | z2 G3 G | G2 F2 z2 | z2 F2 G2 | E4 D2 | (D2 E2) D2 | D2 C2 z2 | %110
w: |Hal- le-|lu\- * jah,|Hal- le-|lu- jah,|Hal- le-|lu- jah,|Hal\- * le-|lu- jah,|
 z2 A2 B2 | (c3 B) A2 | z2 F3 F |{G} F2 E2 z2 | z2 D2 E2 | (F3 E) D2 | z2 G3 G | G2 F2 z2 | %118
w: Hal- le-|lu\- * jah,|Hal- le-|* jah,|Hal- le-|lu\- * jah,|Hal- le-|lu- jah,|
 z2 (DE) F2 | G4 D2 | (D2 G2) F2 |{G} F2 E2 z2 | z2 F2 G2 | E4 D2 | ED (D2 C2) | D4 z2 | z2 z2 D2 | %127
w: Hal\- * le-|lu- jah,|Hal\- * le-|* jah,|Hal- le-|lu- jah,|Hal- le- lu\- *|jah,|Hal-|
 G2 (FE) F2 | GF{!fermata!F} !fermata!TE3 F | F6 |[M:4/4] F8 | G8 | D8 | F8 |] %134
w: le lu\- * jah,|Hal- le- * *|jah,|A-|men,|A-|men.|
V:3
 [DFA]2 z2 [DFA]2 | [DFA]2- [CEA] z A2 | A3 Adc | (c2 B) Bed | (d2 c) cfe | (e2 d) dgB | %6
 (B2 A) z g2 | fd d2 c2 | d4 D2 | A6- |[M:3/4] A4 A2 | A4 A2 | d6- | d4 A2 | B3 cde | %15
 [Ec]2 [CA] z EA | B3 cec | c2 B2 E2 | B6- | B4 B2 | B4 B2 | e6- | e4 B2 | c3 ^def | ^d2 B z FA | %25
 ^G3 EFG | A4 z2 | B3 EBc | d4 z2 | c3 Acd | e3 dcB | cA ^G4 | A2 z A d2 | (d2 E2) B2 | cd B4 | %35
 [CA]4 A2 | A3 f/d/AF | (F2 E) ABc | d3 Adc | B3 dcB | ^A2 F2 c2 | dB ^A4 | B2 G4- | G2 F4- | %44
 F2 E4 | !fermata![^A,CF]4 F2 | B6- | B4 B2 | B4 E2 | A6- | A4 A2 | B3 cde | (c2 A)dcB | AGFBAG | %54
 FEDEF^G | A4 Bc | d2 (AB) =c2 | B3 AGF | (F2 E)A [Dd]2 | [Fd]2 [Ec][CE] [DF]2 | %60
 [DF]2 [CE]2 [EA]2 | [FA]2 F2 A2 | A2 G3 [Ge] |{d} c3 AcA | d2 D2 D2 | EF G3 A | F2 D2 x A | %67
 A2 G2 G2 | G2 F4 | [DB][EG] [DF]2 [CE]2 | [F,A,D]6 ||[K:G]!mf! d6 | d>c B2 z [DFd] | %73
 d>B [GB]2 [FA]2 | [GB]3 [Ac][GB][Ac] | [Bd]>[Ac] [GB]2 [^DAB]2 | [EGB]3 [Ac][GB][Ac] | %77
 [GB]>[FA] [EG]2 [B,=FG]2 |!f! [CEc]3 [=Fd][Ec][Fd] | [Ge]>[=Fd] [Ec]2 [^FA]2 | [DGB]2 [GAc]4 | %81
 [FAd]6 ||[K:C][M:4/4] A3 d c2 _B2 |[M:4/4] A3 d [Ac]2 [G_B]2 | A4 [FG]2 [EG]2 | F A2 G [^CA]2 z2 | %86
!f! [CFA]2 [CFA]2!p! [FA][EG][EG][FA] |!f! [DG_B]2 [DGB]2!p! [GB][FA][FA][GB] | %88
!f! [EAc]2 [EAc]2!p! [Ac][^G=B] e2 | e2 d4!f! [EAc]2 | [EAB]2 [^GB]2 [CEA]2 z [E^c] | %91
!mp! [Fd][E^c][Ge][Fd] [Fd][Ec] z [^FA] | [G_B][^FA][Ac][GB] [GB][FA]!f! [DFA]2 | %93
 [_B,D_B]4 [CEG]2 z2 | [CFA]2 [DFA]2 [DA]2 [_B,DG]2 | !fermata![A,^CEA]8 || %96
[K:D][M:3/4] [FA]2 [Fd]2 [Af]2 | [Ge]2 [GAe]4 | [Fd]2 dcBA | B2 BAGF | E2 z ABc | dA F2{F} [CE]2 | %102
 D2!mp! [DF]2 [EG]2 | [FA]3 [EG] [DF]2 | z2 [GB]4 | [GB]2 [FA]2 [Af][Ge] | [Fd]2 [FA]2 [GB]2 | %107
 [EG]4 [DF]2 | [DB]2 [EG]2 [DF]2 | [DF]2 [CE]2 [Ec][DB] | [CA]2 [Ac]2 [Bd]2 | [ce]3 [Bd] [Ac]2 | %112
 z2 [Fd]3 [Fd] | [Fd]2 cBAG | [DF]2 [DF]2 [EG]2 | [FA]3 [EG] [DF]2 | [B,DG]2 [GB]3 [GB] | %117
 [GB]2 A2 z2 | z2 d3 =c | B4 [DA]2 | [DB]2 [Gc]2 [Fd]2 | [Fd]2 cBAG | F2 [FA]2 [GB]2 | %123
 [EG]4 [DF]2 | [EG]2 [DF]2 [CE]2 | D3 dcB | A2 A2 B2 | c4 d2 | [Be]2 [Ad]2 !fermata![Ac]2 | %129
 [DFAd]6 |[M:3/4] x8 | x8 | x8 | x8 |] %134
V:4
 x6 | x4 EG | [EG]2 [DF] z D2 | D3 G E2 | E3 A F2 | F3 B G2 | E3 x A2 | AB E4 | F4 x2 | z2 z FDF | %10
[M:3/4] [DF]2 [CE] z EG | G2 F z z2 | z2 z BGB | [GB]2 [FA] z D2 | D2 G2 F2 | x4 E2 | A2 ^GE A2 | %17
 A2 ^G2 x2 | z2 z ^GEG | [E^G]2 [^DF] z FA | A2 ^G2 x2 | z2 z cAc | [Ac]2 [^GB] z E2 | E2 A2 ^G2 | %24
 F2 ^D z F2 | x6 | E2 ECEF | ^G2 x4 | A2 AFAB | E4 z2 | B3 ^GAE | EF B,2 D2 | C2 z FDF | E2 E2 E2 | %34
 EF A2 ^G2 | x4 E=G | G2 F z z D | D2 C2 E2 | D2 F2 D2 | D2 G2 E2 | F2 F4- | FG C4 | D2 z B,ED | %43
 C2 z A,DC | B,6 | x6 | z2 z ^GEG | [E^G]2 [^DF] z FA | A2 ^G z x2 | z2 z CE=G | G2 F z D2 | %51
 D2 G2 F2 | E3 D3 | D2 z D2 C | D2 D2 D2 | C4 DE | F2 z F=GA | D4 CD | D2 C2 x2 | x6 | x6 | %61
 C2 D2 D2 | D4 x2 | E3 z C2 | D2 D2 D2 | x6 | x4 z F | D3 B,ED | C2 D4 | z4[I:staff +1] A,G, | %70
[I:staff -1] x6 ||[K:G] G3 FGF | [DG]4 x2 | [DG]2 D4 | x6 | x6 | x6 | x6 | x6 | x6 | x6 | x6 || %82
[K:C][M:4/4] F4 D4 |[M:4/4] G2 F2 D4 | G2 F2 x4 | D2 D2 x4 | x8 | x8 | x4 x2 cB | A2 BA ^G2 x2 | %90
 x2 ED x4 | x8 | x8 | x8 | x8 | x8 ||[K:D][M:3/4] x6 | x6 | x2 D4 | D2 B,4 | C2 z CDE | D2 D2 x2 | %102
 x6 | x6 | x6 | x6 | x6 | x6 | x6 | x6 | x6 | x6 | x6 | x2 E2 E2 | x6 | x6 | x6 | x2 FGFE | %118
 D3 E F2 | G2 D2 x2 | x6 | x2 E2 E2 | x6 | x6 | x6 | x2 D4- | D2 x2 D2 | G2 FE F2 | G2 F2 E2 | x6 | %130
[M:3/4] [A,DFA]8 | [B,EGB]8 | [B,EGB]8 | [A,DFA]8 |] %134
V:5
 [D,,D,]2 z D,F,D, | A,,2 z A,CA, | D,2 z D,F,D, | G,,2 z E,G,E, | A,,2 z F,A,F, | B,,2 z G,B,G, | %6
 C,2 z ECA, | DG, A,2 A,,2 | D,2 D,,2 z2 | z2 z D,F,D, |[M:3/4] A,,2 z A,CA, | [D,D]4 z2 | %12
 z2 z G,,B,,G,, | D,,2 z D,F,D, | G,F, E,2 D,2 | [A,,A,]2 z A,CA, | E2 z A,CA, | E,4 z2 | %18
 z2 z E,^G,E, | B,,2 z B,^DB, | [E,E]4 z2 | z2 z A,,C,A,, | E,,2 z E,^G,E, | A,^G, F,2 E,2 | %24
 B,,2 z B,^DB, | [E,E]4 z2 | C,2 C,A,,C,D, | E,4 z2 | F,2 F,D,F,^G, | A,4 z2 | ^G,2 G,E,F,G, | %31
 A,D, E,2 E,,2 | [F,,F,]2 z D,F,D, | ^G,,2 z E,^G,E, | A,D, E,2 E,,2 | A,,2 z!p! A,CA, | %36
 D2 z D,F,D, | A,,2 A,2 G,2 | F,E, D,2 z F, | G,F, E,2 G,2 | F,2 z F,^A,>F, | B,,E, F,2 F,,2 | %42
 B,,2 z E,G,E, | A,,2 z D,F,D, | G,,2 [G,,G,]4 | !fermata![F,,F,]4 z2 | z2 z E,^G,E, | %47
 B,,2 z B,^DB, | [E,E]4 z2 | z2 z A,,C,A,, | [D,,D,]2 z D,F,D, | G,F, E,2 D,2 | A,2 z B,A,G, | %53
 F,2 z G,F,E, | D,3 C, B,,2 | A,,E,A,G,F,E, | D,2 z D,E,F, | G,3 F,E,D, | A,,2 z A,F,D, | %59
 A,2 z A,F,D, | A,,2 z A,CA, | F,2 z D,F,D, | B,,2 z E, G,E, | A,,2 z F,A,F, | B,,2 z G,B,G, | %65
 [C,A,]2 z ECA, | [D,D]2 z D,F,D, | B,,2 z E,G,E, | A,,2 z D,F,D, | [G,,G,]2 [A,,A,]2 A,,2 | %70
 [D,,D,]6 ||[K:G]!mf! [G,B,]3 [A,C][G,B,][A,C] | B,>A, G,2 z D, | B,,G,, D,2 D,,2 | [G,,,G,,]6- | %75
 [G,,,G,,]4 [F,,F,]2 | [E,,E,]6- | [E,,E,]4 TD,2 |!f! [C,,C,]6- | [C,,C,]4 [D,,D,]2 | %80
 [G,,G,]2 [E,,E,]4 | [D,,D,]6 ||[K:C][M:4/4] D,E,F,D, G,A,_B,G, |[M:4/4] D,E,F,D, G,A,_B,G, | %84
 D,E,F,D, E,D,^C,A,, | D,=C, _B,,2 A,,2 z2 |!f! [F,,F,][G,,G,][A,,A,][_B,,_B,]!p! [C,C]2 z2 | %87
!f! [G,,G,][A,,A,][_B,,_B,][C,C]!p! [D,D]2 z2 |!f! [A,,A,][=B,,=B,][C,C][D,D]!p! [E,E]2 z2 | %89
 [F,,F,]2 z2 [E,,E,]2!f! [A,,A,]2 | [E,,E,]2 E,,2 [A,,,A,,]2!p! A,2 |!mp! DA, z D, A,A,, D,2 | %92
 G,D, z G, DD,!f! [D,,D,]2 | [G,,G,]4 [C,,C,]2 z2 | [F,,F,]2 [D,,D,]2 [_B,,,_B,,]4 | %95
 !fermata![A,,,A,,]8 ||[K:D][M:3/4] D,2 D2 D2- | D2 CB,CA, | DD,B,A,G,F, | G,G,,G,F,E,D, | %100
 C,A,,A,G,F,E, | F,D, A,2 A,,2 |!mp! D,6- | D,2 D,E,F,D, | G,3 A,B,G, | D,3 D,F,A, | D4 B,2 | %107
 C2 A,2 B,2 | G,4 D,2 | A,,3 A,,C,E, | A,2 A,,2 z2 | A,3 B,CB, | D,3 E,F,D, | A,,3 B,,C,A,, | %114
 [D,,D,]6- | [D,,D,]3 E,F,D, | G,3 A,B,G, | D,3 E,D,C, | B,,2 B,2 A,2 | G,4 F,2 | G,F, E,2 D,2 | %121
 A,3 B,CA, | D4 B,2 | C2 A,2 B,2 | G,2 A,2 A,,2 | B,,D,F,B,A,G, | F,4 G,2 | E,2 A,,2 D,2 | %128
 [G,,G,]2 [A,,A,]2 !fermata![A,,,A,,]2 | [D,,D,]6 |[M:3/4] [D,,D,]8 | [G,,,G,,]8 | %132
 [G,,,B,,,D,,G,,]8 | [D,,F,,A,,D,]8 |] %134

